<?xml version="1.0" encoding="UTF-8"?>
<map version="1.10" tiledversion="1.12.2" orientation="orthogonal" renderorder="right-down" width="40" height="22" tilewidth="32" tileheight="32" infinite="0" nextlayerid="3" nextobjectid="12">
 <editorsettings>
  <export target="dungeon_001.json" format="json"/>
 </editorsettings>
 <tileset firstgid="1" source="Dungeon_Tileset.tsx"/>
 <layer id="1" name="Map" width="40" height="22">
  <data encoding="csv">
1,2,2,2,2,2,2,2,2,2,2,3,4,5,2,3,4,5,2,2,2,2,2,3,4,2,3,4,2,3,4,5,2,2,3,2,3,4,5,6,
11,12,13,13,13,13,13,13,13,13,14,13,13,13,13,13,13,13,13,13,13,13,13,13,13,13,13,13,13,13,13,13,13,13,13,13,13,14,15,16,
21,22,72,72,72,72,72,72,72,72,72,72,72,73,23,23,23,23,23,24,7,7,7,7,8,7,7,7,8,7,7,7,7,7,7,7,7,8,25,16,
31,22,71,71,71,72,23,23,23,23,23,23,23,23,7,8,8,7,7,8,17,17,17,7,7,17,17,7,7,17,17,17,17,17,17,17,7,8,25,16,
11,22,71,72,73,74,7,7,7,8,7,8,8,8,8,8,18,17,7,7,7,7,7,8,17,27,27,17,17,27,27,27,27,27,27,27,7,8,25,16,
11,22,71,7,8,7,8,17,7,7,8,8,18,18,7,8,28,27,17,7,7,7,17,18,7,7,7,7,8,27,27,27,7,7,7,8,8,8,25,16,
21,22,7,8,8,17,18,27,17,17,18,7,8,7,17,18,8,7,8,17,17,17,27,28,8,8,8,7,7,7,8,7,17,17,7,8,18,18,25,16,
31,22,7,8,7,27,28,7,8,27,28,17,18,17,27,28,18,17,7,8,27,27,27,28,18,18,18,17,7,8,8,8,8,27,7,8,28,28,25,16,
11,22,7,8,7,8,28,17,18,8,18,27,28,27,28,28,28,27,17,18,28,7,7,8,28,28,28,7,8,18,18,18,18,8,8,8,7,8,25,16,
11,22,7,7,17,18,28,27,28,7,8,17,7,7,8,7,8,8,27,28,8,17,7,7,8,27,28,17,18,28,28,28,28,18,18,18,17,18,25,16,
21,22,7,17,27,28,28,27,17,7,7,7,7,8,8,8,8,18,18,7,7,27,17,7,7,8,8,27,28,8,7,7,7,7,7,8,27,28,25,16,
11,22,7,7,8,28,28,7,8,17,17,17,17,18,18,18,18,28,28,17,7,8,27,7,7,8,8,8,8,8,8,17,17,17,17,18,7,8,8,26,
11,22,7,17,18,27,28,17,18,27,27,27,27,7,7,7,7,7,7,27,7,8,8,8,8,8,18,18,18,18,18,8,8,8,8,28,7,8,18,36,
11,22,7,27,28,27,28,27,28,8,8,28,8,17,17,17,17,17,7,7,7,8,18,18,18,18,28,28,28,28,28,18,18,18,18,8,8,8,28,16,
21,22,7,8,27,27,28,28,28,18,18,28,18,27,27,27,27,7,7,17,17,18,8,28,28,28,17,18,17,27,28,28,28,28,28,18,18,18,25,16,
11,22,7,8,27,28,17,27,28,28,28,28,28,7,7,7,7,7,7,27,27,28,7,8,8,8,8,7,7,7,8,27,17,27,28,7,8,28,25,26,
11,22,7,7,8,27,27,27,27,27,28,27,28,17,17,17,17,17,7,8,7,7,8,8,18,7,8,17,17,17,18,7,7,8,7,7,7,8,25,16,
11,22,7,7,7,7,7,7,7,7,7,27,28,27,27,7,7,8,8,8,7,7,8,18,28,7,7,27,27,27,7,7,7,8,17,17,7,8,25,16,
11,22,17,17,17,17,17,17,17,17,17,17,27,28,28,17,17,18,18,18,17,17,18,28,28,17,17,18,27,27,17,17,17,18,27,27,17,18,25,16,
21,22,27,27,27,27,27,27,27,27,27,27,27,27,28,27,27,28,28,28,27,27,28,27,28,27,27,28,27,28,27,27,27,28,27,28,27,28,25,26,
31,32,33,33,33,33,33,33,33,33,33,33,33,33,33,33,34,34,34,34,34,34,34,34,34,34,34,34,34,34,34,34,34,34,34,34,34,34,35,36,
41,42,42,42,42,42,43,44,42,43,44,45,42,43,44,45,42,42,42,43,44,45,42,42,43,44,45,42,43,42,43,44,45,42,43,42,43,44,45,46
</data>
 </layer>
 <objectgroup id="2" name="Objects">
  <object id="6" type="Collider" x="0" y="0" width="32" height="700" visible="0"/>
  <object id="7" type="Collider" x="0" y="0" width="1280" height="32" visible="0"/>
  <object id="8" type="Collider" x="1248" y="0.5" width="32" height="700" visible="0"/>
  <object id="10" type="Collider" x="0" y="670" width="1280" height="32" visible="0"/>
  <object id="11" x="1232" y="1354.67"/>
 </objectgroup>
</map>
